**kern	**kern
*staff2	*staff1
*clefF4	*clefG2
*k[b-]	*k[b-]
*M3/4	*M3/4
=-	=-
2F	(4f
.	4c)
4r	4f
=34	=34
*	*^
2C	(4g	4e
.	4c)	4r
4r	4g	4r
*	*v	*v
=35	=35
(4F	(4a
4D	4f)
4BB-)	4g 4b-
=36	=36
2C	(4f 4a
.	4e) 4g
4r	4cc
=37	=37
(4A 4f	(4cc
4G 4e	4b-
4F) 4f	4a)
=38	=38
4B-	(4f 4dd
4r	4d) 4b-
4BB-	4B- 4g
=39	=39
*^	*^
(4A	2.C	(4f	2r
4E	.	4g	.
4G)	.	4cc)	4e
=40	=40	=40	=40
2F	2FF	(4b-	4g
.	.	4a)	4f
4r	4r	4cc'	4a
*v	*v	*	*
=41	=41	=41
(4F 4A	(4cc	4a
4G 4B-	4b-	4g
4A) 4c	4a)	4f
=42	=42	=42
4B- 4d	(4dd	4f
4r	4b-)	4d
4BB-	4g	4B-
*	*v	*v
=43	=43
*^	*
(4A	2C	(4f
4B-)	.	4g)
4G	4C	4e'
=44	=44	=44
4A	4F	4f'
4r	4FF	4r
*v	*v	*
*-	*-
